X:1
T:The Heathen at Your Door
T:The Heathen at Your Door
T:Edmund Simon Lorenz
T:Herbert Emery Buffum, 1915
T:Public Domain Courtesy of the Cyber Hymnal™
T:Public Domain Courtesy of the Cyber Hymnal™
C:Edmund Simon Lorenz
Z:Public Domain
Z:Courtesy of the Cyber Hymnal™
%%score ( 1 2 ) ( 3 4 )
L:1/8
Q:1/4=86
M:4/4
K:F
V:1 treble 
V:2 treble 
V:3 bass 
V:4 bass 
V:1
 [FA][GB] | [Ac]>[Ac] [^G=B][Ac] [Fd][Fc][FA]F | [Ff]>[Ff] [Ff][Fd] [Fc]2 [Fd][FA] | %3
w: 1.~Far a-|way a- cross the o- cean comes a|call for Gos- pel light; Mill- ions|
w: 2.~We may|ne- ver take the Gos- pel far a-|way from our own home; We may|
w: 3.~Do not|sigh to do some great thing that will|make your name re- sound Af- ter|
 [Ec]>[EB] [EB][^DA] [EB][EG][EA][EB] | [Fd]>[Fc] [Fc][F=B] [Fc]2 [FA][G_B] | %5
w: now are dy- ing dai- ly, lost in|su- per- sti- tion’s night; Let us|
w: ne- ver leave our loved ones o- ver|land and sea to roam; Dark- est|
w: you for years are sleep- ing un- der-|neath a lit- tle mound; We will|
 [Ac]>[Ac] [^G=B][Ac] [Fd][Fc][FA]F | [Ff]>[Ff] [Fe][Fd] [Fc]2 z [Fc] | %7
w: give our- selves, our mon- ey— give it|in a- bun- dant store, But|
w: Af- ri- ca and In- dia we per-|haps will ne’er ex- plore, But|
w: feel re- paid in Hea- ven, when we|reach that shin- ing shore, If|
 [Fd][Fc][Af][Fd] [Fc][FA]F[FG] | [FA]2 [CG]2 [CF]3 z || %9
w: not for- get the hea- then at our|ve- ry door.|
w: not for- get the hea- then at our|ve- ry door.|
w: one is there to greet us, saved at|our own door.|
"^Refrain" [Fc]>[Fc] [Fc][Fc] [Fd] [Fc]2 z | [FA]>[FA] [FA][F^G] [FA]3 z | %11
w: ||
w: Don’t for- get our bro- thers|call- ing o’er the sea;|
w: ||
 [Fc]>[Fc] [Fc][Fc] [Fd] [Fc]2 z | [EB]>[EB] [EB][^DA] [EB]2 [EG][FA] | %13
w: ||
w: Don’t for- get the neigh- bors|next to you and me; We may|
w: ||
 [GB]>[Ec] [Ed][Ge] [Fd][Fc][F=B][Fc] | [Fd][FB]F[Fd] [Fc]2 z [Fc] | %15
w: ||
w: ne- ver bear the mes- sage to some|need- y dist- ant shore, But|
w: ||
 [Fd][Fc][Af][Fd] [Fc][FA]F[FG] | [FA]2 [CG]2 [CF]2 z |] %17
w: ||
w: we can win the hea- then at our|ve- ry door.|
w: ||
V:2
 x2 | x7 F | x8 | x8 | x8 | x7 F | x8 | x6 F x | x8 || x8 | x8 | x8 | x8 | x8 | x2 F x5 | x6 F x | %16
 x7 |] %17
V:3
 [F,C][F,C] | [F,C]>[F,C] [F,D][F,C] [F,B,][F,A,][F,C][A,C] | %2
 [B,D]>[B,D] [B,C]B, [F,A,]2 [F,A,][F,C] | [C,C]>[C,G,] [C,G,][C,^F,] [C,G,][C,B,][C,A,][C,G,] | %4
 [F,B,]>[F,A,] [F,A,][F,^G,] [F,A,]2 [F,C][F,C] | [F,C]>[F,C] [F,D][F,C] [F,B,][F,A,][F,C][A,C] | %6
 [B,D]>[B,D] [B,C]B, [F,A,]2 z [F,A,] | [F,B,][F,A,][F,C][F,B,] [F,A,][F,C][A,,C][B,,D] | %8
 [C,C]2 [C,B,]2 [F,A,]3 z || [F,A,]>[F,A,] [F,A,][F,A,] [F,B,] [F,A,]2 z | %10
 [F,C]>[F,C] [F,C][F,=B,] [F,C]3 z | [F,A,]>[F,A,] [F,A,][F,A,] [F,B,] [F,A,]2 z | %12
 [G,C]>[G,C] [G,C][^F,C] [G,C]2 [C,C][C,C] | [C,C]>[C,B,] [C,B,][C,B,] [F,B,][F,A,][F,^G,][F,A,] | %14
 B,[B,D][B,D]B, [F,A,]2 z [F,A,] | [F,B,][F,A,][F,C][F,B,] [F,A,][F,C][A,,C][B,,D] | %16
 [C,C]2 [C,B,]2 [F,A,]2 z |] %17
V:4
 x2 | x8 | x3 B, x4 | x8 | x8 | x8 | x3 B, x4 | x8 | x8 || x8 | x8 | x8 | x8 | x8 | B, x B, x5 | %15
 x8 | x7 |] %17

